X: 11062
T: MARY LOU and CHARLIE
C: Bob McQuillen 30 Dec 01
B: Bob's Note Book 11 #62
%R: reel
Z: 2020 John Chambers <jc:trillian.mit.edu>
M: C
L: 1/8
K: D
|:f2af edde | fafd edB2 | A2FA BddB | ABde feed |
| f2af efde | fafd edBd | A2FA BddB | ABde fdd2 :|
|:f2dB A2FE | DEFA BAFA | B2dB A2de | fedf edB2 |
| A2FE DEFA | B2BA FBB2 | A2FA BdAF | ABdf e2d2 :|
%%begintext align
%% Their last names
%% (Philbin/Clarke) are on a waltz, the last tune
%% (inside the back cover) in Book 10, but these two
%% very dear friends surely deserve an Irish-style
%% reel of their own, to thank them for their many
%% acts of Kindness to us all. Much love to you
%% guys, from your old Kwack. :-)
%%endtext

%%sep 1 1 500

%%sep 1 1 500

